app/public/icons/userAcesso.svg

<svg width="36" height="36" viewBox="0 0 36 36" fill="none" xmlns="http://www.w3.org/2000/svg">
<path d="M14.4125 16.8261C16.2114 16.8261 17.9366 15.9397 19.2086 14.362C20.4805 12.7842 21.1951 10.6443 21.1951 8.41304C21.1951 6.18177 20.4805 4.04187 19.2086 2.46412C17.9366 0.886372 16.2114 0 14.4125 0C12.6137 0 10.8885 0.886372 9.61651 2.46412C8.34452 4.04187 7.62993 6.18177 7.62993 8.41304C7.62993 10.6443 8.34452 12.7842 9.61651 14.362C10.8885 15.9397 12.6137 16.8261 14.4125 16.8261ZM11.9909 19.981C6.7715 19.981 2.54297 25.226 2.54297 31.7001C2.54297 32.778 3.24772 33.6522 4.11675 33.6522H23.3465C23.0604 33.0343 22.8908 32.3179 22.8908 31.5489V23.1359C22.8908 22.9978 22.8961 22.8598 22.9067 22.7218C21.264 21.0129 19.1445 19.981 16.8341 19.981H11.9909ZM30.5212 15.7745C31.4591 15.7745 32.2169 16.7144 32.2169 17.8777V21.0326H28.8256V17.8777C28.8256 16.7144 29.5833 15.7745 30.5212 15.7745ZM26.2821 17.8777V21.0326C25.3442 21.0326 24.5864 21.9725 24.5864 23.1359V31.5489C24.5864 32.7123 25.3442 33.6522 26.2821 33.6522H34.7604C35.6983 33.6522 36.456 32.7123 36.456 31.5489V23.1359C36.456 21.9725 35.6983 21.0326 34.7604 21.0326V17.8777C34.7604 14.9726 32.8634 12.6196 30.5212 12.6196C28.1791 12.6196 26.2821 14.9726 26.2821 17.8777Z" fill="white"/>
</svg>

<svg xmlns="http://www.w3.org/2000/svg" width="36" height="36" fill="none"><path fill="#fff" d="M14.413 16.826c1.798 0 3.524-.886 4.796-2.464 1.271-1.578 1.986-3.718 1.986-5.949s-.715-4.371-1.986-5.949C17.937.886 16.21 0 14.413 0c-1.8 0-3.524.886-4.796 2.464S7.63 6.182 7.63 8.413s.715 4.371 1.987 5.949c1.271 1.578 2.997 2.464 4.795 2.464m-2.422 3.155c-5.22 0-9.448 5.245-9.448 11.72 0 1.077.705 1.951 1.574 1.951h19.23a5 5 0 0 1-.456-2.103v-8.413q0-.207.016-.414c-1.643-1.71-3.762-2.741-6.073-2.741zm18.53-4.207c.938 0 1.696.94 1.696 2.104v3.155h-3.391v-3.155c0-1.164.757-2.104 1.695-2.104m-4.239 2.104v3.155c-.938 0-1.696.94-1.696 2.103v8.413c0 1.163.758 2.103 1.696 2.103h8.478c.938 0 1.696-.94 1.696-2.103v-8.413c0-1.163-.758-2.103-1.696-2.103v-3.155c0-2.905-1.897-5.258-4.239-5.258s-4.239 2.353-4.239 5.258"/></svg>
